X: 1
T: Sammeles Annas brudpolska
C: Hans Dalfors 1855
Z: 2008 John Chambers <jc:trillian.mit.edu>
S: http://www.spillefolk.dk/nodesamling/visnode.phpkey=po-sammeles
S: R\"attviks Spelmanslag "50 \ar"
M: 3/4
L: 1/16
K: Dm
A2 \
| (de)d^c (A2B2) (G3A) | (FD)FA (^c2d2) (e3f) |1,3 (de)d^c (A2B2) (G3B) | AF3     E6 \
                                             :|2,4 (de)d^c  A3(g   f3)e | (d2^c2) d6 :|
|: z2 \
| {^GAB}A4 (a3=b/a/) g3e | (f3a) g3{f}g a3{g}a | =b3g a2e2 (fefg) |1,3 (a2f2) e8 :|2,4 (a2^c2) d6 :|
|: e2 \
| (gagf) d3e (^cA3) | (d^cdf) e6 e2 | (fefa) g2(e2 f2)e2 |1,3 (d^cde) (fg3) e4 :|2 ^c2d2 (e2c2) d2 :|
